X:12601
T:Paddy Fahy's
R:reel
Z:id:hn-reel-113
M:C|
K:Ddor
D2A,D FEFG|Add^c d2de|fedf edcA|dcAG FDCE|
D2A,D FEFG|Add^c d2de|fedf edcA|dcAG FDD2:|
|:Ad~d2 fded|c2Gc EcGc|Ad~d2 fded|cBcd ed~d2|
a2ge ABcA|dcAG FDCE|D2A,D FEFG|Add^c d4:|
